icons/internal-repo.svg

<svg width="13" height="16" viewBox="0 0 13 16" fill="none" xmlns="http://www.w3.org/2000/svg">
<path d="M10 4H11V6H10V4Z" fill="#24292E"/>
<path d="M10 7H11V9H10V7Z" fill="#24292E"/>
<path d="M10 10H11V12H10V10Z" fill="#24292E"/>
<path d="M10 13H11V15H10V13Z" fill="#24292E"/>
<path d="M3 11H4V10H3V11Z" fill="#24292E"/>
<path d="M3 6H4V7H3V6Z" fill="#24292E"/>
<path d="M3 8H4V9H3V8Z" fill="#24292E"/>
<path fill-rule="evenodd" clip-rule="evenodd" d="M9 0H10V1C10.2652 1 10.5196 1.10536 10.7071 1.29289C10.8946 1.48043 11 1.73478 11 2H12C12.2652 2 12.5196 2.10536 12.7071 2.29289C12.8946 2.48043 13 2.73478 13 3V16H12V3H11C10.7348 3 10.4804 2.89464 10.2929 2.70711C10.1054 2.51957 10 2.26522 10 2H9C9 2.26522 8.89464 2.51957 8.70711 2.70711C8.51957 2.89464 8.26522 3 8 3H7V4H8C8.55 4 9 4.45 9 5V14C9 14.55 8.55 15 8 15H4V16L3 15.5L2 16V15H1C0.45 15 0 14.55 0 14V5C0 4.45 0.45 4 1 4H6V3C6 2.73478 6.10536 2.48043 6.29289 2.29289C6.48043 2.10536 6.73478 2 7 2H8C8 1.73478 8.10536 1.48043 8.29289 1.29289C8.48043 1.10536 8.73478 1 9 1V0ZM2 12H8V5H2V12ZM2 13H1V14H2V13ZM8 14V13H4V14H8Z" fill="#24292E"/>
</svg>

<svg width="13" height="16" fill="none" xmlns="http://www.w3.org/2000/svg"><path d="M10 4h1v2h-1V4zM10 7h1v2h-1V7zM10 10h1v2h-1v-2zM10 13h1v2h-1v-2zM3 11h1v-1H3v1zM3 6h1v1H3V6zM3 8h1v1H3V8z"/><path fill-rule="evenodd" clip-rule="evenodd" d="M9 0h1v1a1 1 0 011 1h1a1 1 0 011 1v13h-1V3h-1a1 1 0 01-1-1H9a1 1 0 01-1 1H7v1h1c.55 0 1 .45 1 1v9c0 .55-.45 1-1 1H4v1l-1-.5-1 .5v-1H1c-.55 0-1-.45-1-1V5c0-.55.45-1 1-1h5V3a1 1 0 011-1h1a1 1 0 011-1V0zM2 12h6V5H2v7zm0 1H1v1h1v-1zm6 1v-1H4v1h4z"/></svg>
